X:628
T: ALLEWEIL KA MER NET LUSTIG SEI
N: E0575
O: Europa, Mitteleuropa, Deutschland, Schwaben
R: Liebes - Lied
M: 3/8
L: 1/16
K: G
 | G3GG2 | B2A2G2 | d3DD2 |
G3FG2 | B2A2G2 | d6 |
c3de2 | e2d2c2 | B2Bcd2 |
A2ABc2 | G3GG2 | F2E2F2 | G6- | G4z2

@@@ Tune index: 4278
